X:1
T:[ID 8-89a]
T:[ID 8-89a]
T:Bezeichnung standardisiert: Menuett Menuet 1. Hiernachst folgen die besten Menuett aus G-Dur In dieser Quelle auch als: Menuetto \"Ahnlich in dieser Quelle: ID 2-8a;
T:Urheber unbekannt Datum in der hier transkribierten schriftlichen Quelle: 1792
C:Urheber unbekannt
C:Datum in der hier transkribierten schriftlichen Quelle: 1792
L:1/8
M:3/4
K:G
V:1 treble 
V:1
 G2 G2 g2 | d4 Bd | cBcAGF | G2 B2 d2 | G2 G2 g2 | d4 Bd | cBcAGF | G4 G,2 :: cAFDFA | G2 B2 d2 | %10
 cAFDFA | G2 B2 d2 | G2 G2 g2 | d4 Bd | cBcAGF | G4 G,2 :| %16

